X: 1
T: Come Down, O Love Divine
C: Words: Bianco of Siena d. 1434.  Translated by Richard F. Littledale, 1867. 
C: Music: 'Down Ampney' Ralph Vaughan Williams, 1906.  Setting: Ralph Vaughan Williams, 1906.
C: copyright: public domain.  This score is a part of the Open Hymnal Project, 2009 Revision.
S: Music source: The English Hymnal, 1906 Hymn 152
M: 4/4 % time signature
L: 1/4 % default length
%%staves (S1V1 S1V2) | (S2V1 S2V2) 
V: S1V1 clef=treble 
%%MIDI beat 127 125 110 1
V: S1V2 
%%MIDI beat 127 125 110 1
V: S2V1 clef=bass 
%%MIDI beat 127 125 110 1
V: S2V2 
%%MIDI beat 127 125 110 1
K: D % key signature
%
%%MIDI program 1 0 % Piano 1
%%MIDI program 2 0 % Piano 1
%%MIDI program 3 0 % Piano 1
%%MIDI program 4 0 % Piano 1
%
% 1
[V: S1V1] [Q:1/4=120] D2 E F | A2 B2 | A4 | A2 B A | (d c) B2 |
w: 1.~Come down, O love di- vine, seek Thou this soul * of 
w: 2.~O let it free- ly burn, til earth- ly pas- * sions 
w: 3.~Let ho- ly char- it- y mine out- ward ves- * ture 
w: 4.~And so the yearn- ing strong, with which the soul * will 
[V: S1V2]  A,2 A, D | (D C) (B, C) | D4 | F2 F E | (D E) D2 |
[V: S2V1]  F,2 A, D, | E,2 (G, E,) | F,4 | A,2 D, E, | (F, A,) (A, ^G,) |
[V: S2V2]  D,2 C, D, | A,,2 G,,2 | D,4 | D,2 D, C, | (B,, C,) E,2 |
% 5
[V: S1V1]  A2 A2 | B A G F | E D E F/G/ | E2 !fermata!D2 |
w: mine, And vis- it it with Thine own ar- dor * glow- ing. 
w: turn To dust and ash- es in its heat con- * su- ming; 
w: be, And low- li- ness be- come mine in- ner * cloth- ing; 
w: long, Shall far out- pass the pow'r of hu- man * tell- ing; 
[V: S1V2]  C2 D2 | D C D D | B, D D D | (D C) !ferm!D2 |
[V: S2V1]  A,2 F,2 | G, E, G, A, | G, A, B, B, | (A,3/2 G,/) !invertedfermata!F,2 |
[V: S2V2]  A,,2 D,2 | G,, A,, B,, D, | G, F, G, E, | A,,2 !ferm!D,2 |
% 13
[V: S1V1]  d2 c B | A2 B2 | A4 | =c2 B A | G2 F2 | !fermata!E2
w: O Com- fort- er, draw near, with- in my heart ap- pear, 
w: And let Thy glor- ious light shine ev- er on my sight, 
w: True low- li- ness of heart, which takes the hum- bler part, 
w: For none can guess its grace, till he be- come the place 
[V: S1V2]  F2 F D | F2 (E D) | C4 | E2 D D | (B, C) D2 | !ferm!A,2
[V: S2V1]  B,2 A, B, | (D C) B,2 | C4 | (G, A,) B, F, | G,2 (A, B,) | !invertedfermata!C2
[V: S2V2]  B,2 F, G, | (D, F,) ^G,2 | A,4 | (E, F,) G, D, | E,2 (F, G,) | !ferm!A,2
% 17
[V: S1V1]  !sintro!E2 | A B A G | F D E F/G/ | E2 !fermata!D2 !eintro!|]
w: And kin- dle it, Thy ho- ly flame be- * stow- ing. 
w: And clothe me round, the while my path il- * lum- ing. 
w: And o'er its own short- com- ings weeps with * loath- ing. 
w: Where- in the Ho- ly Spir- it makes His * dwell- ing. 
[V: S1V2]  C2 | D D C D/E/ | A, D D D | (D C) !ferm!D2 |]
[V: S2V1]  A,2 | A, G, E, B, | A, A, B, G, | (A,3/2 G,/) !invertedfermata!F,2 |]
[V: S2V2]  (A,, G,,) | F,, G,, A,, B,,/C,/ | D, F, G, E, | A,,2 !ferm!D,2 |]
% 20
